X: 22118
T: Koroit Heckler, The
R: reel
M: 4/4
K: Amajor
|:A3B cF F2|EFFE AEFA|ABBA cF F2|ecBA B2 cB|
ABBA cF F2|EFFE AEFA|ABBA cF F2|ecBA B3c:|
|:e3f ecBA|F3E AEFA|ef f2 aefa|afec B3c|
e3f ecBA|F3E AEFA|ef f2 aefa|ecBc A2 A2:|

